X: 128
T: Missa Sine nomine I / Gloria
N: Derived from Rue1028b-Missa_Sine_nomine_I-Gloria.krn
C: Pierre de la Rue
%%abc-version 2.0
%%abcx-abcm2ps-target-version 5.9.1 (29 Sep 2008)
%%abc-creator hum2abc beta
%%abcx-conversion-date 2019/02/17 08:01:15
%%abc-edited-by Jesse Rodin
%%abc-edited-by Chris Gage 06-10-2013
%%abcx-initial-encoding-date 2013/08/04/
%%humdrum-veritas 2348803271
%%humdrum-veritas-data 969672299
%%linebreak <none>
%%barnumbers 0
L: 1/4
M: 2/1
Q: 1/2=120
%%staves [1 2 3 4]
V: 1 clef=treble
V: 2 clef=treble-8
V: 3 clef=treble-8
V: 4 clef=bass
K: F
[V:1] z8 | 
[V:2] G6G2 | 
[V:3] z8 | 
[V:4] z8 | 
[V:1] G6G2 | 
[V:2] B4c4 | 
[V:3] z8 | 
[V:4] z8 | 
[V:1] B4c4 | 
[V:2] d4z2c2 | 
[V:3] z8 | 
[V:4] z8 | 
[V:1] d2d2d2c2 | 
[V:2] f4e4 | 
[V:3] z8 | 
[V:4] z8 | 
[V:1] d2A2c3B | 
[V:2] d2f3ecd | 
[V:3] z8 | 
[V:4] z8 | 
[V:1] GABcB2A2- | 
[V:2] efe2d4 | 
[V:3] z8 | 
[V:4] z8 | 
[V:1] A2G2G2^F2 | 
[V:2] c2B2A4 | 
[V:3] z8 | 
[V:4] z8 | 
[V:1] G8 | 
[V:2] G8 | 
[V:3] z4z2G2 | 
[V:4] z4z2G,2 | 
[V:1] z8 | 
[V:2] z8 | 
[V:3] B4c4 | 
[V:4] G,4E,4 | 
[V:1] z4z2G2 | 
[V:2] z4z2d2 | 
[V:3] d4z2B2 | 
[V:4] D,4z2G,2 | 
[V:1] B2B2c2c2 | 
[V:2] d2d2g2g2 | 
[V:3] B2B2G2G2 | 
[V:4] G,2G,2E,2E,2 | 
[V:1] d4z2G2- | 
[V:2] f4z2d2 | 
[V:3] A4z2G2 | 
[V:4] D,4z2G,2- | 
[V:1] G2G2G2G2 | 
[V:2] d2d2G4 | 
[V:3] B2B2c4 | 
[V:4] G,2G,2E,2E,2 | 
[V:1] F2A2B2d2- | 
[V:2] A2f4f2 | 
[V:3] d8- | 
[V:4] D,2D,2B,,3A,, | 
[V:1] dcBAG2F2 | 
[V:2] g3fdef2- | 
[V:3] d8- | 
[V:4] G,,2G,3F,D,2 | 
[V:1] B4A4 | 
[V:2] f2g3^f^f2 | 
[V:3] d8 | 
[V:4] B,,2G,,2D,4 | 
[V:1] G8 | 
[V:2] g8 | 
[V:3] z4z2d2- | 
[V:4] G,,2G,3G,G,2 | 
[V:1] z8 | 
[V:2] z8 | 
[V:3] ddd2d2d2 | 
[V:4] G,2G,2G,2G,2- | 
[V:1] z8 | 
[V:2] z2d2f2f2 | 
[V:3] d2d4A2- | 
[V:4] G,2D,4D,2 | 
[V:1] z4z2A2 | 
[V:2] f3e/d/c4 | 
[V:3] A2A2c2c2 | 
[V:4] F,2F,2F,3E,/D,/ | 
[V:1] c2c2c3B/A/ | 
[V:2] g8 | 
[V:3] c3B/A/G2c2- | 
[V:4] C,8 | 
[V:1] G2c3BAG | 
[V:2] e4f4- | 
[V:3] cBAGA3B | 
[V:4] C,4F,4- | 
[V:1] A2G4^F2 | 
[V:2] f2e2d3c | 
[V:3] cBAGA4 | 
[V:4] F,2G,2D,4 | 
[V:1] G8 | 
[V:2] d8 | 
[V:3] G4z2B2- | 
[V:4] G,,4z2G,2- | 
[V:1] z8 | 
[V:2] z8 | 
[V:3] BBB2c2d2- | 
[V:4] G,G,G,2E,2D,2 | 
[V:1] z8 | 
[V:2] z8 | 
[V:3] d2d2d3^c | 
[V:4] F,4E,2E,2 | 
[V:1] z2A2B2B2 | 
[V:2] f4g2g2 | 
[V:3] d4z4 | 
[V:4] D,4z4 | 
[V:1] A2d2d3^c | 
[V:2] f2d2f3e | 
[V:3] z8 | 
[V:4] z8 | 
[V:1] d2d2d2d2 | 
[V:2] d4f4 | 
[V:3] z4d4 | 
[V:4] D,4D,2D,2 | 
[V:1] d4A4 | 
[V:2] f2f2f4 | 
[V:3] d2d2d4 | 
[V:4] D,8 | 
[V:1] z2A3Bc2 | 
[V:2] e8- | 
[V:3] c8 | 
[V:4] A,,8 | 
[V:1] A2c3BA2 | 
[V:2] e8 | 
[V:3] c4A2c2- | 
[V:4] z2A,,2C,3D, | 
[V:1] G2A2z2c2 | 
[V:2] e3ee2e2 | 
[V:3] cBA2G2A2 | 
[V:4] E,2A,,2z2A,2- | 
[V:1] A2c3BA2- | 
[V:2] c2f4f2 | 
[V:3] c2A2c4 | 
[V:4] A,2F,4F,2 | 
[V:1] A2G2A4- | 
[V:2] d4f4- | 
[V:3] B4A4 | 
[V:4] G,4D,4 | 
[V:1] A2F2F4 | 
[V:2] f2d2d4 | 
[V:3] z2A2A2A2 | 
[V:4] z2D,2D,2D,2 | 
[V:1] z2F2F2F2 | 
[V:2] z2d2d2d2 | 
[V:3] B4A4 | 
[V:4] B,,4D,4 | 
[V:1] E4D4 | 
[V:2] c4d4 | 
[V:3] z2A4A2 | 
[V:4] z2A,,2D,4 | 
[V:1] z2F2F4 | 
[V:2] z2d4d2 | 
[V:3] B4A4 | 
[V:4] B,,4D,4 | 
[V:1] E4D4 | 
[V:2] c4d4 | 
[V:3] z2A2B2A2 | 
[V:4] z2A,,2D,4 | 
[V:1] z2D2E2D2 | 
[V:2] z2d2c2A2 | 
[V:3] B4A4- | 
[V:4] G,,3A,,/B,,/C,2D,2 | 
[V:1] EFGABcA2- | 
[V:2] c4B2f2- | 
[V:3] A2G4c2- | 
[V:4] C,D,E,F,G,2F,2 | 
[V:1] A2G3^FF2 | 
[V:2] fed3cd2 | 
[V:3] c2B2A4 | 
[V:4] G,4D,4 | 
[V:1] G8 ||  
[V:2] B8 ||  
[V:3] G8 ||  
[V:4] G,,8 ||  
[V:1]  [K:F] [K:clef=treble][M:2/1]B4B2B2- | 
[V:2]  [K:F] [K:clef=treble-8][M:2/1]g4g2g2- | 
[V:3]  [K:F] [K:clef=treble-8][M:2/1]z4d4 | 
[V:4]  [K:F] [K:clef=bass][M:2/1]G,4G,2G,2- | 
[V:1] B2B2B2B2 | 
[V:2] g2g2g2g2 | 
[V:3] d2d4d2 | 
[V:4] G,2G,2G,2G,2 | 
[V:1] B3A/G/F4 | 
[V:2] G4A4 | 
[V:3] d2d2d3c/B/ | 
[V:4] G,3F,/E,/D,4 | 
[V:1] z2F2A2A2 | 
[V:2] z2d4c2- | 
[V:3] A4z2A2 | 
[V:4] z2D,2F,2F,2 | 
[V:1] G2c3BAG | 
[V:2] ccc2G4 | 
[V:3] c2c2c4 | 
[V:4] C,4E,4 | 
[V:1] F8 | 
[V:2] A4d4 | 
[V:3] d3c/B/A4 | 
[V:4] D,8 | 
[V:1] z8 | 
[V:2] z2d4d2 | 
[V:3] G8 | 
[V:4] z2G,,2G,,2G,,2 | 
[V:1] z8 | 
[V:2] d2d2e2e2 | 
[V:3] z2G2G2G2 | 
[V:4] B,,2B,,2C,2C,2 | 
[V:1] z2G2G2G2 | 
[V:2] dcBAG3F | 
[V:3] B2B2c2c2 | 
[V:4] D,2_E,4D,C, | 
[V:1] B2B2c2c2 | 
[V:2] GFB4A2 | 
[V:3] d4z4 | 
[V:4] B,,2D,2C,4 | 
[V:1] d4z2d2- | 
[V:2] B4z4 | 
[V:3] d3dd2B2- | 
[V:4] B,,8 | 
[V:1] ddd2B3c | 
[V:2] B3cd2d2 | 
[V:3] Bcd2d2B2- | 
[V:4] z2B,,3B,,B,,2 | 
[V:1] d2B2Bcd2- | 
[V:2] B2B2f2f2 | 
[V:3] Bcd4A2 | 
[V:4] B,,2B,,2D,2D,2 | 
[V:1] d2d2ed2^c | 
[V:2] f3efde2 | 
[V:3] A8- | 
[V:4] D,3C,D,2A,,2 | 
[V:1] d8 | 
[V:2] d8 | 
[V:3] A8 | 
[V:4] D,8 | 
[V:1] D4F2G2 | 
[V:2] B4A2G2 | 
[V:3] z4z2D2 | 
[V:4] z4z2G,,2 | 
[V:1] z8 | 
[V:2] z8 | 
[V:3] DEFGA2G2- | 
[V:4] B,,2D,2C,B,,A,,G,, | 
[V:1] z2A2B3A | 
[V:2] z2c2B2d2- | 
[V:3] G2^F2G4 | 
[V:4] A,,4G,,4 | 
[V:1] AGG4^F2 | 
[V:2] d2cBA4 | 
[V:3] z8 | 
[V:4] z8 | 
[V:1] G2G2G2G2 | 
[V:2] G2d2d2e2 | 
[V:3] B4B2B2 | 
[V:4] G,3G,G,2G,2 | 
[V:1] A2B2c2c2 | 
[V:2] f2d2e2e2 | 
[V:3] A2G4G2 | 
[V:4] F,2G,2C,4 | 
[V:1] G4z2G2 | 
[V:2] e4z2e2 | 
[V:3] c4G4 | 
[V:4] C,4z2G,2 | 
[V:1] A2B2c2c2 | 
[V:2] f2d2c2c2 | 
[V:3] z2G2A2G2 | 
[V:4] F,2G,2C,2C,2 | 
[V:1] G4z4 | 
[V:2] e8 | 
[V:3] c2c2G4 | 
[V:4] C,8- | 
[V:1] c8 | 
[V:2] e6e2 | 
[V:3] z4c4 | 
[V:4] C,4C,4 | 
[V:1] A2B4A2 | 
[V:2] f2d3ef2 | 
[V:3] d4B2c2- | 
[V:4] F,2G,4F,2 | 
[V:1] G2G2F4 | 
[V:2] e2d2d4 | 
[V:3] c2B2A2A2 | 
[V:4] C,2G,2D,4 | 
[V:1] z2F2G2G2 | 
[V:2] z2d2c4 | 
[V:3] G2A4G2 | 
[V:4] z2D,2E,4 | 
[V:1] F8 | 
[V:2] d6cB | 
[V:3] A4A4 | 
[V:4] D,4D,4 | 
[V:1] z8 | 
[V:2] d8 | 
[V:3] z2G2B2B2 | 
[V:4] z2G,2G,2G,2 | 
[V:1] z8 | 
[V:2] z8 | 
[V:3] c2c2d4 | 
[V:4] E,2E,2D,2G,2- | 
[V:1] z8 | 
[V:2] z8 | 
[V:3] z2G3AB2 | 
[V:4] G,A,B,2G,3A, | 
[V:1] z8 | 
[V:2] z8 | 
[V:3] GAB2GABc | 
[V:4] B,2G,A,B,2G,A, | 
[V:1] z2G2G3A | 
[V:2] z8 | 
[V:3] d2e2ed2^c | 
[V:4] B,A,G,F,E,4 | 
[V:1] B2A4A2 | 
[V:2] f4f4 | 
[V:3] d8 | 
[V:4] D,8 | 
[V:1] d4G3A | 
[V:2] f2g3fd2- | 
[V:3] z2G3AB2 | 
[V:4] z8 | 
[V:1] B2G2c3B | 
[V:2] d2e4e2 | 
[V:3] G2c3BA2- | 
[V:4] z8 | 
[V:1] A4A2d2- | 
[V:2] f8 | 
[V:3] A2A2d3c | 
[V:4] D,3E,F,2D,2 | 
[V:1] dcBAG2c2- | 
[V:2] d2g3fed | 
[V:3] BAG2c3B | 
[V:4] G,3F,E,D,C,2 | 
[V:1] cBAGF3G | 
[V:2] c2f3edc | 
[V:3] AGF4F2 | 
[V:4] F,3E,D,C,B,,2 | 
[V:1] A2G4^F2 | 
[V:2] e2c2d4 | 
[V:3] c2BGA4 | 
[V:4] C,2_E,2D,4 | 
[V:1] G8 |]  
[V:2] d8 |]  
[V:3] G8 |]  
[V:4] G,,8 |]  



